components/ui-node-icon/src/localFile/localFile.medium.svg

<svg width="24" height="24" viewBox="0 0 24 24" fill="none" xmlns="http://www.w3.org/2000/svg">
  <path fill-rule="evenodd" clip-rule="evenodd" d="M7 2C5.34315 2 4 3.34315 4 5V19C4 20.6569 5.34315 22 7 22H17C18.6569 22 20 20.6569 20 19V8L15 2H7Z" fill="var(--tbl--colors--icons--transformation--primary)" fill-opacity="0.4"/>
  <path d="M20 8L15 2V6C15 7.10457 15.8954 8 17 8H20Z" fill="white" fill-opacity="0.5"/>
</svg>

<svg xmlns="http://www.w3.org/2000/svg" width="24" height="24" fill="none" viewBox="0 0 24 24">
  <path fill="var(--tbl--colors--icons--transformation--primary)" fill-opacity=".4" fill-rule="evenodd" d="M7 2a3 3 0 0 0-3 3v14a3 3 0 0 0 3 3h10a3 3 0 0 0 3-3V8l-5-6H7Z" clip-rule="evenodd"/>
  <path fill="#fff" fill-opacity=".5" d="m20 8-5-6v4a2 2 0 0 0 2 2h3Z"/>
</svg>
